X:0947
T:Miss Bain's Reel.
M:C
L:1/8
Q:1/2=100
I: :: ||
N:last note in each part printed as a quaver; variant repeat added
Z:Jack Campin * www.campin.me.uk * 2009
K:D
     A>FD>F AdcB|dfeg e/e/e  e2    |AFDF AdcA|BdAF D/D/D [1 D2   :|\
                                                         [2 D    ||
f/g/|afdf   abaf|geaf e/e/e (e/f/g)|afdf abaf|geaf d/d/d   (d/f/g)|
     afdf   abag|geaf e/e/e  g2    |fdec dBAF|GBAF D/D/D    D2   |]
<end>
<start>
